X: 38138
T: Sporting Molly
R: reel
M: 4/4
K: Dmajor
|:dcAG FADF|E2 =cE dE=cE|d^cAG FADF|Addc dfed|
dcAG FD D2|E2 =cE dE=cE|d^cAG FADF|1 Addc dfed:|2 Addc d3e||
|:f2df efge|afge afge|fdcd efge|afge fd d2|
fdcd efge|afge a2 fg|afge fdec|1 Addc d3e|2 Addc dfed||

